X:1
T:Rominger, LM
T:T. Stanley Skinner, 1911
T:Rominger, LM
T:Public Domain
C:T. Stanley Skinner, 1911
Z:Public Domain
%%score ( 1 2 ) ( 3 4 )
L:1/8
M:4/4
K:E
V:1 treble 
V:2 treble 
V:3 bass 
V:4 bass 
V:1
 (EF) | [EG]2 [EB]2 [EA]2 [=DG]2 | [CG]2 (F^E) [CF]2 [Fc]2 | [DF]2 [DG]2 [DA]2 [DA]2 | %4
 [EA]2 ([EG][DF]) [EG]2 [EG]2 | [EA]2 (FG) [Ac]2 F2 | [DG]2 [DF]2 [CE]2 [CE]2 | %7
 [CG]2 [CF]2 [B,E]2 [CE]2 | [CE]2 [B,D]2 [B,E]2 |] %9
V:2
 B,2 | x8 | x2 C2 x4 | x8 | x8 | x2 B2 x F2 x | x8 | x8 | x6 |] %9
V:3
 (G,A,) | [E,B,]2 [E,D]2 [E,C]2 [^E,B,]2 | [F,B,]2 (A,G,) [F,A,]2 [D,A,]2 | %3
 [B,,A,]2 [B,,G,]2 [B,,F,]2 [B,,C]2 | [E,C]2 [E,B,]2 [E,B,]2 [=D,B,]2 | %5
 [C,C]2 [B,,=D]2 [A,,C]2 [A,,C]2 | [G,,^B,]2 (^A,,^B,,) [C,G,]2 [C,C]2 | %7
 [F,,B,]2 [F,,A,]2 [G,,G,]2 [A,,F,]2 | (F,G,) [B,,A,]2 [E,G,]2 |] %9
V:4
 E,2 | x8 | x2 F,2 x4 | x8 | x8 | x8 | x2 ^A,2 x4 | x8 | B,,2 x4 |] %9

